X: 1365
T: Cunnamulla Stocking Jig
B: australian traditional tunes wiki
M:6/8
L:1/8
R: Jig
Q: 3/8=100
K:D
V:1 
"D"dcB A2F|"G"GFE "D"FGA|dcB GFE|"A"GFE "D"D3:|
"Em"E2E E2F|"G"GAG "D"F2D|"Em"E2E E2F|"A"GFE "D"D3:|
% abcbook-tune_id 6342d53a91aa8b78b4dce881


% abcbook-boost 0
% abcbook-tablature 
% abcbook-transpose 
% abcbook-lastupdated 1665324361309
% abcbook-soundfonts 
% abcbook-repeats 1
% NFF Book 2008

